svgs/thin/calculator-simple.svg

<svg xmlns="http://www.w3.org/2000/svg" viewBox="0 0 512 512"><!--! Font Awesome Pro 6.3.0 by @fontawesome - https://fontawesome.com License - https://fontawesome.com/license (Commercial License) Copyright 2023 Fonticons, Inc. --><path d="M40 120h144C188.4 120 192 116.4 192 112S188.4 104 184 104h-144C35.59 104 32 107.6 32 112S35.59 120 40 120zM328 120h64v64c0 4.406 3.594 8.042 8 8.042S408 188.4 408 184v-64h64c4.406 0 8-3.552 8-7.958S476.4 104 472 104h-64v-64c0-4.406-3.594-7.958-8-7.958S392 35.59 392 40v64h-64C323.6 104 320 107.6 320 112S323.6 120 328 120zM168.6 343.4c-3.115-3.115-8.197-3.115-11.31 0L112 388.7l-45.25-45.25c-3.117-3.115-8.199-3.115-11.31 0s-3.115 8.197 0 11.31L100.7 400l-45.25 45.25c-3.115 3.117-3.115 8.199 0 11.31s8.197 3.115 11.31 0L112 411.3l45.25 45.25c3.117 3.115 8.199 3.115 11.31 0s3.115-8.197 0-11.31L123.3 400l45.25-45.25C171.7 351.6 171.7 346.5 168.6 343.4zM472 360h-144c-4.406 0-8 3.594-8 8s3.594 8 8 8h144c4.406 0 8-3.594 8-8S476.4 360 472 360zM472 424h-144c-4.406 0-8 3.594-8 8s3.594 8 8 8h144c4.406 0 8-3.594 8-8S476.4 424 472 424zM504 248h-240v-240C264 3.578 260.4 0 256 0S248 3.578 248 8v240h-240C3.594 248 0 251.6 0 256s3.594 8 8 8h240v240C248 508.4 251.6 512 256 512s8-3.578 8-8v-240h240C508.4 264 512 260.4 512 256S508.4 248 504 248z"/></svg>

<svg xmlns="http://www.w3.org/2000/svg" viewBox="0 0 512 512"><!-- Font Awesome Pro 6.0.0-alpha2 by @fontawesome - https://fontawesome.com License - https://fontawesome.com/license (Commercial License) --><path d="M40 120H184C188.406 120 192 116.406 192 112S188.406 104 184 104H40C35.594 104 32 107.594 32 112S35.594 120 40 120ZM328 120H392V184C392 188.406 395.594 192 400 192S408 188.406 408 184V120H472C476.406 120 480 116.406 480 112S476.406 104 472 104H408V40C408 35.594 404.406 32 400 32S392 35.594 392 40V104H328C323.594 104 320 107.594 320 112S323.594 120 328 120ZM168.568 343.432C165.453 340.316 160.371 340.316 157.254 343.432L112 388.686L66.746 343.432C63.629 340.316 58.547 340.316 55.432 343.432S52.316 351.629 55.432 354.746L100.686 400L55.432 445.254C52.316 448.371 52.316 453.453 55.432 456.568S63.629 459.684 66.746 456.568L112 411.314L157.254 456.568C160.371 459.684 165.453 459.684 168.568 456.568S171.684 448.371 168.568 445.254L123.314 400L168.568 354.746C171.684 351.629 171.684 346.547 168.568 343.432ZM472 360H328C323.594 360 320 363.594 320 368S323.594 376 328 376H472C476.406 376 480 372.406 480 368S476.406 360 472 360ZM472 424H328C323.594 424 320 427.594 320 432S323.594 440 328 440H472C476.406 440 480 436.406 480 432S476.406 424 472 424ZM504 248H264V8C264 3.578 260.406 0 256 0S248 3.578 248 8V248H8C3.594 248 0 251.578 0 256S3.594 264 8 264H248V504C248 508.422 251.594 512 256 512S264 508.422 264 504V264H504C508.406 264 512 260.422 512 256S508.406 248 504 248Z"/></svg>
